actions/24/media-skip-forward-symbolic.svg

<?xml version="1.0" encoding="UTF-8" standalone="no"?>
<svg
   xmlns:dc="http://purl.org/dc/elements/1.1/"
   xmlns:cc="http://creativecommons.org/ns#"
   xmlns:rdf="http://www.w3.org/1999/02/22-rdf-syntax-ns#"
   xmlns:svg="http://www.w3.org/2000/svg"
   xmlns="http://www.w3.org/2000/svg"
   id="svg6"
   version="1.1"
   width="24"
   height="24">
  <metadata
     id="metadata12">
    <rdf:RDF>
      <cc:Work
         rdf:about="">
        <dc:format>image/svg+xml</dc:format>
        <dc:type
           rdf:resource="http://purl.org/dc/dcmitype/StillImage" />
        <dc:title></dc:title>
      </cc:Work>
    </rdf:RDF>
  </metadata>
  <defs
     id="defs10" />
  <path
     d="m 23,6 c 0.554,0 1,0.446 1,1 v 10 c 0,0.554 -0.446,1 -1,1 h -1 c -0.554,0 -1,-0.446 -1,-1 V 13.162109 L 13.458984,17.875 C 13.319727,17.94856 13.16845,18 13,18 12.447715,18 12,17.552285 12,17 V 13.128906 L 4.458984,17.875 C 4.319727,17.94856 4.16845,18 4,18 3.447715,18 3,17.552285 3,17 V 7 C 3,6.4477153 3.447715,6 4,6 4.16845,6 4.319727,6.0514361 4.458984,6.125 L 12,10.871094 V 7 c 0,-0.5522847 0.447715,-1 1,-1 0.16845,0 0.319727,0.051436 0.458984,0.125 L 21,10.837891 V 7 c 0,-0.554 0.446,-1 1,-1 z"
     style="font-variation-settings:normal;opacity:1;vector-effect:none;fill:#555761;fill-opacity:1;stroke:none;stroke-width:4;stroke-linecap:round;stroke-linejoin:round;stroke-miterlimit:4;stroke-dasharray:none;stroke-dashoffset:0;stroke-opacity:1;stop-color:#000000;stop-opacity:1"
     id="path980-3" />
</svg>

<svg
        xmlns='http://www.w3.org/2000/svg'
        xmlns:svg='http://www.w3.org/2000/svg'
        id='svg6'
        width='24'
        height='24'>
  <path
          id='path980-3'
          opacity='1'
          fill='url(#gpa:foreground) #555761'
          fill-opacity='1'
          fill-rule='nonzero'
          stroke='none'
          stroke-opacity='1'
          stroke-width='4'
          stroke-linecap='round'
          stroke-linejoin='round'
          stroke-miterlimit='4'
          stroke-dasharray='none'
          stroke-dashoffset='0'
          d='M 23 6 C 23.554 6, 24 6.446, 24 7 L 24 17 C 24 17.554, 23.554 18, 23 18 L 22 18 C 21.446 18, 21 17.554, 21 17 L 21 13.1621 L 13.459 17.875 C 13.3197 17.9486, 13.1685 18, 13 18 C 12.4477 18, 12 17.5523, 12 17 L 12 13.1289 L 4.45898 17.875 C 4.31973 17.9486, 4.16845 18, 4 18 C 3.44772 18, 3 17.5523, 3 17 L 3 7 C 3 6.44772, 3.44772 6, 4 6 C 4.16845 6, 4.31973 6.05144, 4.45898 6.125 L 12 10.8711 L 12 7 C 12 6.44772, 12.4477 6, 13 6 C 13.1685 6, 13.3197 6.05144, 13.459 6.125 L 21 10.8379 L 21 7 C 21 6.446, 21.446 6, 22 6 Z'
          class="foreground">
  </path>
</svg>
